X:1
T:I’m Going to Meet Him
T:I’m Going to Meet Him
T:J. Howard Entwisle
T:Ada Blenkhorn, 1898
T:Public Domain Courtesy of the Cyber Hymnal™
T:Public Domain Courtesy of the Cyber Hymnal™
C:J. Howard Entwisle
Z:Public Domain
Z:Courtesy of the Cyber Hymnal™
%%score ( 1 2 ) ( 3 4 )
L:1/8
Q:1/4=100
M:4/4
K:Ab
V:1 treble 
V:2 treble 
V:3 bass 
V:4 bass 
V:1
 [CE]2 | [CA]>[B,G] [CA]>[DB] [Ec]2 [EA]>[EB] | [Ec]2 [Ee]2 [Ee]3 [Ed] | %3
w: 1.~A-|gain in all His beau- ty the|Lord shall come, I’m|
w: 2.~How|glad will be the morn- ing when|I shall rise, I’m|
w: 3.~I’ll|hear the trum- pet sound- ing so|loud and clear, I’m|
w: 4.~Will|you be glad to meet Him on|that great day? I’m|
w: 5.~With|shout- ing and ho- san- nas the|earth shall ring, I’m|
 (3[Ec][Ec][Ec] [Ec]>[Ec] [Ec]>[EA] [Ed]>[Ec] x | [EB]6 [DE]2 | %5
w: go- ing to meet my Je- sus by and|by; To|
w: go- ing to meet my Je- sus by and|by; To|
w: go- ing to meet my Je- sus by and|by; The|
w: go- ing to meet my Je- sus by and|by; He|
w: go- ing to meet my Je- sus by and|by; And|
 [CA]>[B,G] [CA]>[DB] [Ec]2 [EA]>[EB] | [Ec]2 [Ee]2 [_Ge]3 [Fd] | %7
w: meet His faith- ful child- ren and|call them home, I’m|
w: meet my Sav- ior com- ing from|out the skies, I’m|
w: day is not far dis- tant, ’tis|draw- ing near, I’m|
w: bids you to be rea- dy, to|watch and pray, I’m|
w: I shall soon be- hold Him, my|Lord, my king, I’m|
 (3[Ec][Ec][Ec] [Ec]>[Ed] [Ec]>[EA] [EB]>[EB] | [EA]6 z2 ||"^Refrain" [FA]4- [FA]>[DF] [Fd]>[Fd] | %10
w: go- ing to meet my Je- sus by and|by.||
w: go- ing to meet my Je- sus by and|by.||
w: go- ing to meet my Je- sus by and|by.|Go- * ing by and|
w: go- ing to meet my Je- sus by and|by.||
w: go- ing to meet my Je- sus by and|by.||
 [Ec]6 z2 | [A=d]4- [Ad]>[AB] [Ac]>[Ad] | [Ge]6 z2 | [Ae]>[A=d] [Af]>[Ae] [Ec]>[=DB] [CA]>E | %14
w: ||||
w: ||||
w: by,|go- * ing by and|by;|I’ll be there to an- swer when the|
w: ||||
w: ||||
 [DF]2 [Fd]2 [Fd]4 | (3[Ec][Ec][Ec] [_Ge]>[Fd] [Ec]2 [EB]2 | [EA]6 |] %17
w: |||
w: |||
w: Sav- ior calls,|Go- ing to meet Him by and|by.|
w: |||
w: |||
V:2
 x2 | x8 | x8 | x9 | x8 | x8 | x8 | x8 | x8 || x8 | x8 | x8 | x8 | x15/2 E/ | x8 | x8 | x6 |] %17
V:3
 [A,,A,]2 | [A,,E,]>[A,,E,] [A,,E,]>[A,,E,] [A,,A,]2 [C,A,]>[E,G,] | A,2 [A,C]2 [A,C]3 [A,B,] | %3
w: ~|~ ~ ~ ~ ~ ~ ~|~ ~ ~ ~|
 A,A,A,A,>A,A,>[C,A,][B,,G,]>[A,,A,] | ([E,G,]2 [E,G,]>[E,G,] [E,G,]2 [E,G,]2) | %5
w: ~ ~ ~ ~ ~ ~ ~ ~ ~|~ * * * *|
 [A,,A,]>[A,,E,] [A,,E,]>[A,,E,] [A,,A,]2 [C,A,]>[E,G,] | A,2 [A,C]2 [C,A,]3 [D,A,] | %7
w: ~ ~ ~ ~ ~ ~ ~|~ ~ ~ ~|
 (3[E,A,][E,A,][E,A,] [E,A,]>[E,B,] [E,A,]>[E,C] [E,D]>[E,D] | [A,,C]6 z2 || %9
w: ~ ~ ~ ~ ~ ~ ~ ~ ~|~|
 z2 (3[D,D][D,D][D,D] [D,D]>[D,A,] [D,A,]>[D,A,] | A,2 [E,A,]>[C,A,] [A,,A,]2 z2 | %11
w: Go- ing to meet Him by and|by, by and by,|
 z2 (3[F,B,][F,B,][F,B,] [B,,B,]>[B,,B,] [B,,B,]>[B,,B,] | [E,B,]2 [E,B,]>[E,B,] ([E,B,]2 D2) | %13
w: Go- ing to meet Him by and|by, by and by; *|
 [A,C]>[A,=B,] [A,D]>[A,C] [A,,A,]>[A,,E,] [A,,E,]>[C,A,] | [D,A,]2 [D,A,]2 [D,A,]4 | %15
w: ||
 (3[E,A,][E,A,][E,A,] [C,A,]>[D,A,] [E,A,]2 [E,D]2 | [A,,C]6 |] %17
w: ||
V:4
 x2 | x8 | A,2 x6 | (3A,A,A, A,>A, A,3/2 x7/2 | x8 | x8 | A,2 x6 | x8 | x8 || x8 | A,2 x6 | x8 | %12
 x8 | x8 | x8 | x8 | x6 |] %17

